src/22/mimetypes/text-csv.svg

<?xml version="1.0" encoding="UTF-8" standalone="no"?>

<!-- Created with Inkscape (http://www.inkscape.org/) -->
<svg width="22" version="1.1" xmlns="http://www.w3.org/2000/svg" height="22" xmlns:inkscape="http://www.inkscape.org/namespaces/inkscape">
 <defs id="defs3871"/>
 <metadata id="metadata3874"/>
 <g inkscape:label="Capa 1" inkscape:groupmode="layer" id="layer1" transform="matrix(1 0 0 1 -326 -534.3622)">
  <rect width="0" x="256.22556" y="514.69751" height="14.668059" style="fill:#e00a5e" id="rect4035"/>
  <rect width="0" x="263.18613" y="537.26813" height="14.668059" style="fill:#e00a5e" id="rect4035-8"/>
  <rect width="0" x="264.99942" y="536.2074" height="14.668059" style="fill:#e00a5e" id="rect4035-0"/>
  <rect width="0" x="256.22556" y="514.69751" height="14.668059" style="fill:#e00a5e" id="rect4035-3"/>
  <rect width="0" x="263.18613" y="537.26813" height="14.668059" style="fill:#e00a5e" id="rect4035-8-9"/>
  <rect width="0" x="264.99942" y="536.2074" height="14.668059" style="fill:#e00a5e" id="rect4035-0-4"/>
  <rect width="0" x="256.22556" y="514.69751" height="14.668059" style="fill:#e00a5e" id="rect4035-2"/>
  <rect width="0" x="263.18613" y="537.26813" height="14.668059" style="fill:#e00a5e" id="rect4035-8-99"/>
  <rect width="0" x="264.99942" y="536.2074" height="14.668059" style="fill:#e00a5e" id="rect4035-0-43"/>
  <rect width="0" x="256.22556" y="514.69751" height="14.668059" style="fill:#e00a5e" id="rect4035-3-9"/>
  <rect width="0" x="263.18613" y="537.26813" height="14.668059" style="fill:#e00a5e" id="rect4035-8-9-9"/>
  <rect width="0" x="264.99942" y="536.2074" height="14.668059" style="fill:#e00a5e" id="rect4035-0-4-4"/>
  <rect width="0" x="273.38181" y="518.47876" height="14.668059" style="fill:#8e44ad" id="rect4035-6"/>
  <rect width="0" x="280.34238" y="541.04938" height="14.668059" style="fill:#8e44ad" id="rect4035-8-8"/>
  <rect width="0" x="282.15567" y="539.98865" height="14.668059" style="fill:#8e44ad" id="rect4035-0-6"/>
  <path style="fill:#04896a;stroke-width:2" id="rect4376" d="M 3 3 L 3 19 L 14 19 L 14 18 L 14 14 L 14 13 L 14 9 L 18 9 L 18 13 L 19 13 L 19 3 L 3 3 z M 4 4 L 18 4 L 18 8 L 4 8 L 4 4 z M 4 9 L 8 9 L 8 13 L 4 13 L 4 9 z M 9 9 L 13 9 L 13 13 L 9 13 L 9 9 z M 4 14 L 8 14 L 8 18 L 4 18 L 4 14 z M 9 14 L 13 14 L 13 18 L 9 18 L 9 14 z " transform="matrix(1 0 0 1 326 534.3622)"/>
  <path inkscape:connector-curvature="0" style="fill:#04896a" id="rect4031" d="m 342.5,548.3622 c -0.83101,0 -1.5,0.63799 -1.5,1.42969 0,0.7634 0.62316,1.37632 1.41211,1.41992 0.0575,0.2617 0.0869,0.52812 0.0879,0.79492 -0.002,0.4631 -0.0888,0.92207 -0.25781,1.35547 1.1,-0.7343 1.75582,-1.93289 1.75781,-3.21289 l 0,-0.35742 c 0,-0.7918 -0.669,-1.42969 -1.5,-1.42969 z"/>
 </g>
</svg>

<svg width="22" xmlns="http://www.w3.org/2000/svg" height="22"><g fill="#04896a"><path d="M3 3v16h11V9h4v4h1V3H3zm1 1h14v4H4V4zm0 5h4v4H4V9zm5 0h4v4H9V9zm-5 5h4v4H4v-4zm5 0h4v4H9v-4z" stroke-width="2"/><path d="M16.5 14c-.831 0-1.5.638-1.5 1.43 0 .763.623 1.376 1.412 1.42.058.261.087.528.088.795A3.773 3.773 0 0 1 16.242 19c1.1-.734 1.756-1.933 1.758-3.213v-.357c0-.792-.669-1.43-1.5-1.43z"/></g></svg>
